images/50416750.svg

<?xml version="1.0" encoding="UTF-8"?>
<svg xmlns="http://www.w3.org/2000/svg" xmlns:xlink="http://www.w3.org/1999/xlink" width="300pt" height="300pt" viewBox="0 0 300 300" version="1.1">
<defs>
<g>
<symbol overflow="visible" id="glyph0-0">
<path style="stroke:none;" d="M 0.640625 2.296875 L 0.640625 -9.171875 L 7.140625 -9.171875 L 7.140625 2.296875 Z M 1.375 1.578125 L 6.421875 1.578125 L 6.421875 -8.4375 L 1.375 -8.4375 Z M 1.375 1.578125 "/>
</symbol>
<symbol overflow="visible" id="glyph0-1">
<path style="stroke:none;" d="M 5.125 -8.609375 C 4.1875 -8.609375 3.441406 -8.257812 2.890625 -7.5625 C 2.347656 -6.875 2.078125 -5.929688 2.078125 -4.734375 C 2.078125 -3.535156 2.347656 -2.585938 2.890625 -1.890625 C 3.441406 -1.203125 4.1875 -0.859375 5.125 -0.859375 C 6.050781 -0.859375 6.785156 -1.203125 7.328125 -1.890625 C 7.878906 -2.585938 8.15625 -3.535156 8.15625 -4.734375 C 8.15625 -5.929688 7.878906 -6.875 7.328125 -7.5625 C 6.785156 -8.257812 6.050781 -8.609375 5.125 -8.609375 Z M 5.125 -9.65625 C 6.445312 -9.65625 7.503906 -9.207031 8.296875 -8.3125 C 9.097656 -7.414062 9.5 -6.222656 9.5 -4.734375 C 9.5 -3.234375 9.097656 -2.035156 8.296875 -1.140625 C 7.503906 -0.253906 6.445312 0.1875 5.125 0.1875 C 3.789062 0.1875 2.722656 -0.253906 1.921875 -1.140625 C 1.128906 -2.035156 0.734375 -3.234375 0.734375 -4.734375 C 0.734375 -6.222656 1.128906 -7.414062 1.921875 -8.3125 C 2.722656 -9.207031 3.789062 -9.65625 5.125 -9.65625 Z M 5.125 -9.65625 "/>
</symbol>
<symbol overflow="visible" id="glyph0-2">
<path style="stroke:none;" d="M 1.28125 -9.484375 L 3 -9.484375 L 7.203125 -1.546875 L 7.203125 -9.484375 L 8.453125 -9.484375 L 8.453125 0 L 6.71875 0 L 2.515625 -7.921875 L 2.515625 0 L 1.28125 0 Z M 1.28125 -9.484375 "/>
</symbol>
<symbol overflow="visible" id="glyph0-3">
<path style="stroke:none;" d="M 1.28125 -9.484375 L 2.5625 -9.484375 L 2.5625 -5.59375 L 7.21875 -5.59375 L 7.21875 -9.484375 L 8.5 -9.484375 L 8.5 0 L 7.21875 0 L 7.21875 -4.515625 L 2.5625 -4.515625 L 2.5625 0 L 1.28125 0 Z M 1.28125 -9.484375 "/>
</symbol>
</g>
</defs>
<g id="surface8461">
<rect x="0" y="0" width="300" height="300" style="fill:rgb(100%,100%,100%);fill-opacity:1;stroke:none;"/>
<path style="fill:none;stroke-width:1.2;stroke-linecap:butt;stroke-linejoin:miter;stroke:rgb(100%,0%,0%);stroke-opacity:1;stroke-miterlimit:10;" d="M 254.707031 148.925781 L 259.730469 165.234375 "/>
<path style="fill:none;stroke-width:1.2;stroke-linecap:butt;stroke-linejoin:miter;stroke:rgb(0%,0%,0%);stroke-opacity:1;stroke-miterlimit:10;" d="M 259.730469 165.234375 L 264.75 181.539062 "/>
<path style="fill:none;stroke-width:1.2;stroke-linecap:butt;stroke-linejoin:miter;stroke:rgb(100%,0%,0%);stroke-opacity:1;stroke-miterlimit:10;" d="M 254.707031 148.925781 L 238.074219 145.121094 "/>
<path style="fill:none;stroke-width:1.2;stroke-linecap:butt;stroke-linejoin:miter;stroke:rgb(0%,0%,0%);stroke-opacity:1;stroke-miterlimit:10;" d="M 238.074219 145.121094 L 221.441406 141.3125 "/>
<path style=" stroke:none;fill-rule:nonzero;fill:rgb(100%,100%,100%);fill-opacity:1;" d="M 249.707031 140.925781 L 260.707031 140.925781 L 260.707031 156.925781 L 249.707031 156.925781 Z M 249.707031 140.925781 "/>
<g style="fill:rgb(100%,0%,0%);fill-opacity:1;">
  <use xlink:href="#glyph0-1" x="249.707031" y="153.301758"/>
</g>
<path style="fill:none;stroke-width:1.2;stroke-linecap:butt;stroke-linejoin:miter;stroke:rgb(0%,0%,0%);stroke-opacity:1;stroke-miterlimit:10;" d="M 221.441406 141.3125 L 198.214844 166.320312 "/>
<path style="fill:none;stroke-width:1.2;stroke-linecap:butt;stroke-linejoin:miter;stroke:rgb(0%,0%,0%);stroke-opacity:1;stroke-miterlimit:10;" d="M 213.234375 138.347656 L 194.652344 158.351562 "/>
<path style="fill:none;stroke-width:1.2;stroke-linecap:butt;stroke-linejoin:miter;stroke:rgb(0%,0%,0%);stroke-opacity:1;stroke-miterlimit:10;" d="M 211.398438 108.699219 L 221.441406 141.3125 "/>
<path style="fill:none;stroke-width:1.2;stroke-linecap:butt;stroke-linejoin:miter;stroke:rgb(0%,0%,0%);stroke-opacity:1;stroke-miterlimit:10;" d="M 198.214844 166.320312 L 203.234375 182.625 "/>
<path style="fill:none;stroke-width:1.2;stroke-linecap:butt;stroke-linejoin:miter;stroke:rgb(100%,0%,0%);stroke-opacity:1;stroke-miterlimit:10;" d="M 203.234375 182.625 L 208.257812 198.933594 "/>
<path style="fill:none;stroke-width:1.2;stroke-linecap:butt;stroke-linejoin:miter;stroke:rgb(0%,0%,0%);stroke-opacity:1;stroke-miterlimit:10;" d="M 198.214844 166.320312 L 164.945312 158.707031 "/>
<path style="fill:none;stroke-width:1.2;stroke-linecap:butt;stroke-linejoin:miter;stroke:rgb(100%,0%,0%);stroke-opacity:1;stroke-miterlimit:10;" d="M 208.257812 198.933594 L 224.890625 202.742188 "/>
<path style="fill:none;stroke-width:1.2;stroke-linecap:butt;stroke-linejoin:miter;stroke:rgb(0%,0%,0%);stroke-opacity:1;stroke-miterlimit:10;" d="M 224.890625 202.742188 L 241.523438 206.546875 "/>
<path style=" stroke:none;fill-rule:nonzero;fill:rgb(100%,100%,100%);fill-opacity:1;" d="M 203.257812 190.933594 L 214.257812 190.933594 L 214.257812 206.933594 L 203.257812 206.933594 Z M 203.257812 190.933594 "/>
<g style="fill:rgb(100%,0%,0%);fill-opacity:1;">
  <use xlink:href="#glyph0-1" x="203.257812" y="203.30957"/>
</g>
<path style="fill:none;stroke-width:1.2;stroke-linecap:butt;stroke-linejoin:miter;stroke:rgb(0%,0%,0%);stroke-opacity:1;stroke-miterlimit:10;" d="M 164.945312 158.707031 L 154.90625 126.089844 "/>
<path style="fill:none;stroke-width:1.2;stroke-linecap:butt;stroke-linejoin:miter;stroke:rgb(0%,0%,0%);stroke-opacity:1;stroke-miterlimit:10;" d="M 171.617188 153.082031 L 163.582031 126.988281 "/>
<path style="fill:none;stroke-width:1.2;stroke-linecap:butt;stroke-linejoin:miter;stroke:rgb(0%,0%,0%);stroke-opacity:1;stroke-miterlimit:10;" d="M 154.90625 126.089844 L 178.128906 101.085938 "/>
<path style="fill:none;stroke-width:1.2;stroke-linecap:butt;stroke-linejoin:miter;stroke:rgb(0%,0%,0%);stroke-opacity:1;stroke-miterlimit:10;" d="M 154.90625 126.089844 L 121.636719 118.480469 "/>
<path style="fill:none;stroke-width:1.2;stroke-linecap:butt;stroke-linejoin:miter;stroke:rgb(0%,0%,0%);stroke-opacity:1;stroke-miterlimit:10;" d="M 178.128906 101.085938 L 211.398438 108.699219 "/>
<path style="fill:none;stroke-width:1.2;stroke-linecap:butt;stroke-linejoin:miter;stroke:rgb(0%,0%,0%);stroke-opacity:1;stroke-miterlimit:10;" d="M 179.664062 109.675781 L 206.28125 115.765625 "/>
<path style="fill:none;stroke-width:1.2;stroke-linecap:butt;stroke-linejoin:miter;stroke:rgb(0%,0%,0%);stroke-opacity:1;stroke-miterlimit:10;" d="M 211.398438 108.699219 L 223.011719 96.195312 "/>
<path style="fill:none;stroke-width:1.2;stroke-linecap:butt;stroke-linejoin:miter;stroke:rgb(100%,0%,0%);stroke-opacity:1;stroke-miterlimit:10;" d="M 223.011719 96.195312 L 234.621094 83.691406 "/>
<path style="fill:none;stroke-width:1.2;stroke-linecap:butt;stroke-linejoin:miter;stroke:rgb(100%,0%,0%);stroke-opacity:1;stroke-miterlimit:10;" d="M 234.621094 83.691406 L 229.601562 67.382812 "/>
<path style="fill:none;stroke-width:1.2;stroke-linecap:butt;stroke-linejoin:miter;stroke:rgb(0%,0%,0%);stroke-opacity:1;stroke-miterlimit:10;" d="M 229.601562 67.382812 L 224.582031 51.078125 "/>
<path style=" stroke:none;fill-rule:nonzero;fill:rgb(100%,100%,100%);fill-opacity:1;" d="M 229.621094 75.691406 L 240.621094 75.691406 L 240.621094 91.691406 L 229.621094 91.691406 Z M 229.621094 75.691406 "/>
<g style="fill:rgb(100%,0%,0%);fill-opacity:1;">
  <use xlink:href="#glyph0-1" x="229.621094" y="88.067383"/>
</g>
<path style="fill:none;stroke-width:1.2;stroke-linecap:butt;stroke-linejoin:miter;stroke:rgb(0%,0%,0%);stroke-opacity:1;stroke-miterlimit:10;" d="M 121.636719 118.480469 L 95.925781 140.921875 "/>
<path style="fill:none;stroke-width:1.2;stroke-linecap:butt;stroke-linejoin:miter;stroke:rgb(0%,0%,0%);stroke-opacity:1;stroke-miterlimit:10;" d="M 113.785156 114.675781 L 93.214844 132.625 "/>
<path style="fill:none;stroke-width:1.2;stroke-linecap:butt;stroke-linejoin:miter;stroke:rgb(0%,0%,0%);stroke-opacity:1;stroke-miterlimit:10;" d="M 108.242188 87.09375 L 121.636719 118.480469 "/>
<path style="fill:none;stroke-width:1.2;stroke-linecap:butt;stroke-linejoin:miter;stroke:rgb(0%,0%,0%);stroke-opacity:1;stroke-miterlimit:10;" d="M 95.925781 140.921875 L 98.96875 174.910156 "/>
<path style="fill:none;stroke-width:1.2;stroke-linecap:butt;stroke-linejoin:miter;stroke:rgb(0%,0%,0%);stroke-opacity:1;stroke-miterlimit:10;" d="M 95.925781 140.921875 L 66.636719 123.402344 "/>
<path style="fill:none;stroke-width:1.2;stroke-linecap:butt;stroke-linejoin:miter;stroke:rgb(0%,0%,0%);stroke-opacity:1;stroke-miterlimit:10;" d="M 98.96875 174.910156 L 128.253906 192.429688 "/>
<path style="fill:none;stroke-width:1.2;stroke-linecap:butt;stroke-linejoin:miter;stroke:rgb(0%,0%,0%);stroke-opacity:1;stroke-miterlimit:10;" d="M 73.253906 197.351562 L 98.96875 174.910156 "/>
<path style="fill:none;stroke-width:1.2;stroke-linecap:butt;stroke-linejoin:miter;stroke:rgb(0%,0%,0%);stroke-opacity:1;stroke-miterlimit:10;" d="M 81.105469 201.15625 L 101.675781 183.207031 "/>
<path style="fill:none;stroke-width:1.2;stroke-linecap:butt;stroke-linejoin:miter;stroke:rgb(0%,0%,0%);stroke-opacity:1;stroke-miterlimit:10;" d="M 128.253906 192.429688 L 120.644531 225.699219 "/>
<path style="fill:none;stroke-width:1.2;stroke-linecap:butt;stroke-linejoin:miter;stroke:rgb(0%,0%,0%);stroke-opacity:1;stroke-miterlimit:10;" d="M 135.320312 197.546875 L 129.230469 224.164062 "/>
<path style="fill:none;stroke-width:1.2;stroke-linecap:butt;stroke-linejoin:miter;stroke:rgb(0%,0%,0%);stroke-opacity:1;stroke-miterlimit:10;" d="M 160.871094 182.386719 L 128.253906 192.429688 "/>
<path style="fill:none;stroke-width:1.2;stroke-linecap:butt;stroke-linejoin:miter;stroke:rgb(0%,0%,0%);stroke-opacity:1;stroke-miterlimit:10;" d="M 120.644531 225.699219 L 103.648438 227.21875 "/>
<path style="fill:none;stroke-width:1.2;stroke-linecap:butt;stroke-linejoin:miter;stroke:rgb(0%,0%,100%);stroke-opacity:1;stroke-miterlimit:10;" d="M 103.648438 227.21875 L 86.652344 228.738281 "/>
<path style="fill:none;stroke-width:1.2;stroke-linecap:butt;stroke-linejoin:miter;stroke:rgb(0%,0%,0%);stroke-opacity:1;stroke-miterlimit:10;" d="M 120.644531 225.699219 L 145.648438 248.921875 "/>
<path style="fill:none;stroke-width:1.2;stroke-linecap:butt;stroke-linejoin:miter;stroke:rgb(0%,0%,100%);stroke-opacity:1;stroke-miterlimit:10;" d="M 86.652344 228.738281 L 79.953125 213.046875 "/>
<path style="fill:none;stroke-width:1.2;stroke-linecap:butt;stroke-linejoin:miter;stroke:rgb(0%,0%,0%);stroke-opacity:1;stroke-miterlimit:10;" d="M 79.953125 213.046875 L 73.253906 197.351562 "/>
<path style=" stroke:none;fill-rule:nonzero;fill:rgb(100%,100%,100%);fill-opacity:1;" d="M 76.652344 220.738281 L 96.652344 220.738281 L 96.652344 236.738281 L 76.652344 236.738281 Z M 76.652344 220.738281 "/>
<g style="fill:rgb(0%,0%,100%);fill-opacity:1;">
  <use xlink:href="#glyph0-2" x="76.652344" y="233.114258"/>
  <use xlink:href="#glyph0-3" x="86.62207" y="233.114258"/>
</g>
<path style="fill:none;stroke-width:1.2;stroke-linecap:butt;stroke-linejoin:miter;stroke:rgb(0%,0%,0%);stroke-opacity:1;stroke-miterlimit:10;" d="M 145.648438 248.921875 L 178.265625 238.882812 "/>
<path style="fill:none;stroke-width:1.2;stroke-linecap:butt;stroke-linejoin:miter;stroke:rgb(0%,0%,0%);stroke-opacity:1;stroke-miterlimit:10;" d="M 146.546875 240.246094 L 172.640625 232.210938 "/>
<path style="fill:none;stroke-width:1.2;stroke-linecap:butt;stroke-linejoin:miter;stroke:rgb(0%,0%,0%);stroke-opacity:1;stroke-miterlimit:10;" d="M 178.265625 238.882812 L 185.875 205.613281 "/>
<path style="fill:none;stroke-width:1.2;stroke-linecap:butt;stroke-linejoin:miter;stroke:rgb(0%,0%,0%);stroke-opacity:1;stroke-miterlimit:10;" d="M 185.875 205.613281 L 160.871094 182.386719 "/>
<path style="fill:none;stroke-width:1.2;stroke-linecap:butt;stroke-linejoin:miter;stroke:rgb(0%,0%,0%);stroke-opacity:1;stroke-miterlimit:10;" d="M 177.910156 209.175781 L 157.90625 190.59375 "/>
<path style="fill:none;stroke-width:1.2;stroke-linecap:butt;stroke-linejoin:miter;stroke:rgb(0%,0%,0%);stroke-opacity:1;stroke-miterlimit:10;" d="M 65.0625 119.710938 L 49.367188 126.40625 "/>
<path style="fill:none;stroke-width:1.2;stroke-linecap:butt;stroke-linejoin:miter;stroke:rgb(100%,0%,0%);stroke-opacity:1;stroke-miterlimit:10;" d="M 49.367188 126.40625 L 33.675781 133.105469 "/>
<path style="fill:none;stroke-width:1.2;stroke-linecap:butt;stroke-linejoin:miter;stroke:rgb(0%,0%,0%);stroke-opacity:1;stroke-miterlimit:10;" d="M 68.214844 127.09375 L 52.519531 133.792969 "/>
<path style="fill:none;stroke-width:1.2;stroke-linecap:butt;stroke-linejoin:miter;stroke:rgb(100%,0%,0%);stroke-opacity:1;stroke-miterlimit:10;" d="M 52.519531 133.792969 L 36.824219 140.492188 "/>
<path style="fill:none;stroke-width:1.2;stroke-linecap:butt;stroke-linejoin:miter;stroke:rgb(0%,0%,0%);stroke-opacity:1;stroke-miterlimit:10;" d="M 66.636719 123.402344 L 70.445312 106.769531 "/>
<path style="fill:none;stroke-width:1.2;stroke-linecap:butt;stroke-linejoin:miter;stroke:rgb(0%,0%,100%);stroke-opacity:1;stroke-miterlimit:10;" d="M 70.445312 106.769531 L 74.25 90.132812 "/>
<path style=" stroke:none;fill-rule:nonzero;fill:rgb(100%,100%,100%);fill-opacity:1;" d="M 24.25 128.796875 L 35.25 128.796875 L 35.25 144.796875 L 24.25 144.796875 Z M 24.25 128.796875 "/>
<g style="fill:rgb(100%,0%,0%);fill-opacity:1;">
  <use xlink:href="#glyph0-1" x="24.25" y="141.172852"/>
</g>
<path style="fill:none;stroke-width:1.2;stroke-linecap:butt;stroke-linejoin:miter;stroke:rgb(0%,0%,100%);stroke-opacity:1;stroke-miterlimit:10;" d="M 74.25 90.132812 L 91.246094 88.613281 "/>
<path style="fill:none;stroke-width:1.2;stroke-linecap:butt;stroke-linejoin:miter;stroke:rgb(0%,0%,0%);stroke-opacity:1;stroke-miterlimit:10;" d="M 91.246094 88.613281 L 108.242188 87.09375 "/>
<path style=" stroke:none;fill-rule:nonzero;fill:rgb(100%,100%,100%);fill-opacity:1;" d="M 64.25 82.132812 L 84.25 82.132812 L 84.25 98.132812 L 64.25 98.132812 Z M 64.25 82.132812 "/>
<g style="fill:rgb(0%,0%,100%);fill-opacity:1;">
  <use xlink:href="#glyph0-2" x="64.25" y="94.508789"/>
  <use xlink:href="#glyph0-3" x="74.219727" y="94.508789"/>
</g>
<path style="fill:none;stroke-width:1.2;stroke-linecap:butt;stroke-linejoin:miter;stroke:rgb(0%,0%,0%);stroke-opacity:1;stroke-miterlimit:10;" d="M 111.6875 89.152344 L 120.445312 74.507812 "/>
<path style="fill:none;stroke-width:1.2;stroke-linecap:butt;stroke-linejoin:miter;stroke:rgb(100%,0%,0%);stroke-opacity:1;stroke-miterlimit:10;" d="M 120.445312 74.507812 L 129.203125 59.867188 "/>
<path style="fill:none;stroke-width:1.2;stroke-linecap:butt;stroke-linejoin:miter;stroke:rgb(0%,0%,0%);stroke-opacity:1;stroke-miterlimit:10;" d="M 104.792969 85.03125 L 113.554688 70.386719 "/>
<path style="fill:none;stroke-width:1.2;stroke-linecap:butt;stroke-linejoin:miter;stroke:rgb(100%,0%,0%);stroke-opacity:1;stroke-miterlimit:10;" d="M 113.554688 70.386719 L 122.3125 55.742188 "/>
<path style=" stroke:none;fill-rule:nonzero;fill:rgb(100%,100%,100%);fill-opacity:1;" d="M 120.757812 49.804688 L 131.757812 49.804688 L 131.757812 65.804688 L 120.757812 65.804688 Z M 120.757812 49.804688 "/>
<g style="fill:rgb(100%,0%,0%);fill-opacity:1;">
  <use xlink:href="#glyph0-1" x="120.757812" y="62.180664"/>
</g>
</g>
</svg>

<svg xmlns="http://www.w3.org/2000/svg" xmlns:xlink="http://www.w3.org/1999/xlink" width="300pt" height="300pt" viewBox="0 0 300 300"><defs><symbol overflow="visible"><path d="M.64 2.297v-11.47h6.5v11.47zm.735-.72h5.047V-8.436H1.375zm0 0"/></symbol><symbol overflow="visible" id="a"><path d="M5.125-8.61c-.938 0-1.684.352-2.234 1.047-.542.688-.812 1.633-.812 2.83 0 1.198.27 2.147.813 2.842.55.687 1.297 1.03 2.235 1.03.926 0 1.66-.343 2.203-1.03.55-.696.828-1.645.828-2.844 0-1.196-.277-2.14-.828-2.829-.543-.695-1.277-1.046-2.203-1.046zm0-1.046c1.32 0 2.38.45 3.172 1.344.8.898 1.203 2.09 1.203 3.578 0 1.5-.402 2.7-1.203 3.593C7.504-.255 6.445.186 5.125.186c-1.336 0-2.402-.44-3.203-1.328C1.13-2.036.734-3.235.734-4.735c0-1.49.395-2.68 1.188-3.579.8-.894 1.867-1.343 3.203-1.343zm0 0"/></symbol><symbol overflow="visible" id="b"><path d="M1.28-9.484H3l4.203 7.937v-7.937h1.25V0H6.72L2.515-7.922V0H1.28zm0 0"/></symbol><symbol overflow="visible" id="c"><path d="M1.28-9.484h1.282v3.89H7.22v-3.89H8.5V0H7.22v-4.516H2.562V0H1.28zm0 0"/></symbol></defs><g><path fill="#fff" d="M0 0h300v300H0z"/><path d="M254.707 148.926l5.023 16.308" stroke-width="1.2" stroke="#f00" stroke-miterlimit="10" fill="none"/><path d="M259.73 165.234l5.02 16.305" stroke-width="1.2" stroke="#000" stroke-miterlimit="10" fill="none"/><path d="M254.707 148.926l-16.633-3.805" stroke-width="1.2" stroke="#f00" stroke-miterlimit="10" fill="none"/><path d="M238.074 145.12l-16.633-3.808" stroke-width="1.2" stroke="#000" stroke-miterlimit="10" fill="none"/><path d="M249.707 140.926h11v16h-11zm0 0" fill="#fff"/><use xlink:href="#a" x="249.707" y="153.302" fill="#f00"/><path d="M221.44 141.313l-23.225 25.007M213.234 138.348l-18.582 20.004M211.398 108.7l10.043 32.612M198.215 166.32l5.02 16.305" stroke-width="1.2" stroke="#000" stroke-miterlimit="10" fill="none"/><path d="M203.234 182.625l5.024 16.31" stroke-width="1.2" stroke="#f00" stroke-miterlimit="10" fill="none"/><path d="M198.215 166.32l-33.27-7.613" stroke-width="1.2" stroke="#000" stroke-miterlimit="10" fill="none"/><path d="M208.258 198.934l16.633 3.808" stroke-width="1.2" stroke="#f00" stroke-miterlimit="10" fill="none"/><path d="M224.89 202.742l16.633 3.805" stroke-width="1.2" stroke="#000" stroke-miterlimit="10" fill="none"/><path d="M203.258 190.934h11v16h-11zm0 0" fill="#fff"/><use xlink:href="#a" x="203.258" y="203.31" fill="#f00"/><path d="M164.945 158.707l-10.04-32.617M171.617 153.082l-8.035-26.094M154.906 126.09l23.223-25.004M154.906 126.09l-33.27-7.61M178.13 101.086l33.268 7.613M179.664 109.676l26.617 6.09M211.398 108.7l11.614-12.505" stroke-width="1.2" stroke="#000" stroke-miterlimit="10" fill="none"/><path d="M223.012 96.195l11.61-12.504M234.62 83.69l-5.018-16.307" stroke-width="1.2" stroke="#f00" stroke-miterlimit="10" fill="none"/><path d="M229.602 67.383l-5.02-16.305" stroke-width="1.2" stroke="#000" stroke-miterlimit="10" fill="none"/><path d="M229.62 75.69h11v16h-11zm0 0" fill="#fff"/><use xlink:href="#a" x="229.621" y="88.067" fill="#f00"/><path d="M121.637 118.48l-25.71 22.442M113.785 114.676l-20.57 17.95M108.242 87.094l13.395 31.386M95.926 140.922l3.043 33.988M95.926 140.922l-29.29-17.52M98.97 174.91l29.284 17.52M73.254 197.352L98.97 174.91M81.105 201.156l20.57-17.95M128.254 192.43l-7.61 33.27M135.32 197.547l-6.09 26.617M160.87 182.387l-32.616 10.043M120.645 225.7l-16.997 1.52" stroke-width="1.2" stroke="#000" stroke-miterlimit="10" fill="none"/><path d="M103.648 227.22l-16.996 1.518" stroke-width="1.2" stroke="#00f" stroke-miterlimit="10" fill="none"/><path d="M120.645 225.7l25.003 23.222" stroke-width="1.2" stroke="#000" stroke-miterlimit="10" fill="none"/><path d="M86.652 228.738l-6.7-15.69" stroke-width="1.2" stroke="#00f" stroke-miterlimit="10" fill="none"/><path d="M79.953 213.047l-6.7-15.695" stroke-width="1.2" stroke="#000" stroke-miterlimit="10" fill="none"/><path d="M76.652 220.738h20v16h-20zm0 0" fill="#fff"/><g fill="#00f"><use xlink:href="#b" x="76.652" y="233.114"/><use xlink:href="#c" x="86.622" y="233.114"/></g><path d="M145.648 248.922l32.618-10.04M146.547 240.246l26.094-8.035M178.266 238.883l7.61-33.27M185.875 205.613l-25.004-23.226M177.91 209.176l-20.004-18.582M65.063 119.71l-15.696 6.696" stroke-width="1.2" stroke="#000" stroke-miterlimit="10" fill="none"/><path d="M49.367 126.406l-15.69 6.7" stroke-width="1.2" stroke="#f00" stroke-miterlimit="10" fill="none"/><path d="M68.215 127.094l-15.695 6.7" stroke-width="1.2" stroke="#000" stroke-miterlimit="10" fill="none"/><path d="M52.52 133.793l-15.696 6.7" stroke-width="1.2" stroke="#f00" stroke-miterlimit="10" fill="none"/><path d="M66.637 123.402l3.808-16.632" stroke-width="1.2" stroke="#000" stroke-miterlimit="10" fill="none"/><path d="M70.445 106.77l3.805-16.637" stroke-width="1.2" stroke="#00f" stroke-miterlimit="10" fill="none"/><path d="M24.25 128.797h11v16h-11zm0 0" fill="#fff"/><use xlink:href="#a" x="24.25" y="141.173" fill="#f00"/><path d="M74.25 90.133l16.996-1.52" stroke-width="1.2" stroke="#00f" stroke-miterlimit="10" fill="none"/><path d="M91.246 88.613l16.996-1.52" stroke-width="1.2" stroke="#000" stroke-miterlimit="10" fill="none"/><path d="M64.25 82.133h20v16h-20zm0 0" fill="#fff"/><g fill="#00f"><use xlink:href="#b" x="64.25" y="94.509"/><use xlink:href="#c" x="74.22" y="94.509"/></g><path d="M111.688 89.152l8.757-14.644" stroke-width="1.2" stroke="#000" stroke-miterlimit="10" fill="none"/><path d="M120.445 74.508l8.758-14.64" stroke-width="1.2" stroke="#f00" stroke-miterlimit="10" fill="none"/><path d="M104.793 85.03l8.762-14.643" stroke-width="1.2" stroke="#000" stroke-miterlimit="10" fill="none"/><path d="M113.555 70.387l8.757-14.645" stroke-width="1.2" stroke="#f00" stroke-miterlimit="10" fill="none"/><path d="M120.758 49.805h11v16h-11zm0 0" fill="#fff"/><use xlink:href="#a" x="120.758" y="62.181" fill="#f00"/></g></svg>
